X:52
T:Blue Railroad Train
C:Sam Bush
N:Transcribed by Edward Ashley
R:bluegrass
L:1/8
Q:1/4=185
M:4/4
K:F
CD F2 | {_A}=A2 cd _AG FD | {_A}=A8 | c=B _B{_A}=A2F DC | F7/1C | DF CD FD GF | 
_AF GD F7/2C/ | DF G2 (3_AGF D2 | FC DF CD FG | F2 F2 CD F2 | {B}(3ccc (3ccc {B}(3ccc (3ccc | 
(3cB_A F3F (3CDF | CD _A=A _a=a f2 | _e7/1_d | df g2 fg fg | _af g2 f2 f_d | df gf _af dc | 
fd cf dc _A=A | _A=A FC DE F2 | (3AAA (3AAA (3AAAF | F4 CD F2 | {_A}=A2 cd _AG FD | 
{_A}=A8 | c=B _B{_A}=A2F DC | F7/1C | DF CD FD GF | _AF GD F7/2C/ | DF G2 (3_AGF D2 | 
FC DF CD FG | F2 F2 CD F2 | {B}(3ccc (3ccc {B}(3ccc (3ccc | (3cB_A F3F (3CDF | 
CD _A=A _a=a f2 | _e7/1_d | df g2 fg fg | _af g2 f2 f_d | df gf _af dc | fd cf dc _A=A | 
_A=A FC DE F2 | (3AAA (3AAA (3AAAF | F8 | 

